App/public/icons/contact/send-message.svg

<svg
    xmlns="http://www.w3.org/2000/svg"
    viewBox="0 0 24 24"
>
    <path
        d="M14.2199 21.9352C13.0399 21.9352 11.3699 21.1052 10.0499 17.1352L9.32988 14.9752L7.16988 14.2552C3.20988 12.9352 2.37988 11.2652 2.37988 10.0852C2.37988 8.91525 3.20988 7.23525 7.16988 5.90525L15.6599 3.07525C17.7799 2.36525 19.5499 2.57525 20.6399 3.65525C21.7299 4.73525 21.9399 6.51525 21.2299 8.63525L18.3999 17.1252C17.0699 21.1052 15.3999 21.9352 14.2199 21.9352ZM7.63988 7.33525C4.85988 8.26525 3.86988 9.36525 3.86988 10.0852C3.86988 10.8052 4.85988 11.9052 7.63988 12.8252L10.1599 13.6652C10.3799 13.7352 10.5599 13.9152 10.6299 14.1352L11.4699 16.6552C12.3899 19.4352 13.4999 20.4252 14.2199 20.4252C14.9399 20.4252 16.0399 19.4352 16.9699 16.6552L19.7999 8.16525C20.3099 6.62525 20.2199 5.36525 19.5699 4.71525C18.9199 4.06525 17.6599 3.98525 16.1299 4.49525L7.63988 7.33525Z"
    />
    <path
        d="M10.11 14.7052C9.92005 14.7052 9.73005 14.6352 9.58005 14.4852C9.29005 14.1952 9.29005 13.7152 9.58005 13.4252L13.16 9.83518C13.45 9.54518 13.93 9.54518 14.22 9.83518C14.51 10.1252 14.51 10.6052 14.22 10.8952L10.64 14.4852C10.5 14.6352 10.3 14.7052 10.11 14.7052Z"
    />
</svg>

<svg xmlns="http://www.w3.org/2000/svg" viewBox="0 0 24 24"><path d="M14.22 21.935c-1.18 0-2.85-.83-4.17-4.8l-.72-2.16-2.16-.72c-3.96-1.32-4.79-2.99-4.79-4.17 0-1.17.83-2.85 4.79-4.18l8.49-2.83c2.12-.71 3.89-.5 4.98.58s1.3 2.86.59 4.98l-2.83 8.49c-1.33 3.98-3 4.81-4.18 4.81m-6.58-14.6c-2.78.93-3.77 2.03-3.77 2.75s.99 1.82 3.77 2.74l2.52.84c.22.07.4.25.47.47l.84 2.52c.92 2.78 2.03 3.77 2.75 3.77s1.82-.99 2.75-3.77l2.83-8.49c.51-1.54.42-2.8-.23-3.45s-1.91-.73-3.44-.22z"/><path d="M10.11 14.705c-.19 0-.38-.07-.53-.22a.754.754 0 0 1 0-1.06l3.58-3.59c.29-.29.77-.29 1.06 0s.29.77 0 1.06l-3.58 3.59c-.14.15-.34.22-.53.22"/></svg>
